X: 26115
T: McGoldrick's
R: reel
M: 4/4
K: Dmajor
d2Ad cdAd|cdef gefe|d2Ad cdAF|GEEF GABc|
d2Ad cdAd|cdef g2fg|afge fded|cdAF GABc:|
|:d2fd adfd|defa gece|d2fd adfd|cAAG EADA|
d2fd adfd|cdef g2fg|afge fded|cdAF GABc:|

